images/instagram.svg

<svg width="18" height="18" fill="none" xmlns="http://www.w3.org/2000/svg"><path d="M15 0H3C1.3 0 0 1.3 0 3v12c0 1.7 1.3 3 3 3h12c1.7 0 3-1.3 3-3V3c0-1.7-1.3-3-3-3zM9 6c1.7 0 3 1.3 3 3s-1.3 3-3 3-3-1.3-3-3 1.3-3 3-3zm3.8-2c0-.7.6-1.2 1.2-1.2s1.2.6 1.2 1.2-.5 1.2-1.2 1.2-1.2-.5-1.2-1.2zM15 16H3c-.6 0-1-.4-1-1V9h2c0 2.8 2.2 5 5 5s5-2.2 5-5h2v6c0 .6-.4 1-1 1z" fill="#4F4F4F"/></svg>

<svg width="18" height="18" viewBox="0 0 18 18" fill="none" xmlns="http://www.w3.org/2000/svg">
<path d="M15 0H3C1.3 0 0 1.3 0 3V15C0 16.7 1.3 18 3 18H15C16.7 18 18 16.7 18 15V3C18 1.3 16.7 0 15 0ZM9 6C10.7 6 12 7.3 12 9C12 10.7 10.7 12 9 12C7.3 12 6 10.7 6 9C6 7.3 7.3 6 9 6ZM12.8 4C12.8 3.3 13.4 2.8 14 2.8C14.6 2.8 15.2 3.4 15.2 4C15.2 4.6 14.7 5.2 14 5.2C13.3 5.2 12.8 4.7 12.8 4ZM15 16H3C2.4 16 2 15.6 2 15V9H4C4 11.8 6.2 14 9 14C11.8 14 14 11.8 14 9H16V15C16 15.6 15.6 16 15 16Z" fill="#4F4F4F"/>
</svg>
